svg/icon/game.svg

<svg height="32" viewBox="0 0 32 32" width="32" xmlns="http://www.w3.org/2000/svg" xmlns:xlink="http://www.w3.org/1999/xlink"><defs><linearGradient id="a" x1="50%" x2="50%" y1="0%" y2="100%"><stop offset="0" stop-color="#fff" stop-opacity=".5"/><stop offset="1" stop-opacity=".5"/></linearGradient><circle id="b" cx="16" cy="15" r="15"/><filter id="c" height="111.7%" width="111.7%" x="-5.8%" y="-4.2%"><feOffset dy=".5" in="SourceAlpha" result="shadowOffsetOuter1"/><feGaussianBlur in="shadowOffsetOuter1" result="shadowBlurOuter1" stdDeviation=".5"/><feComposite in="shadowBlurOuter1" in2="SourceAlpha" operator="out" result="shadowBlurOuter1"/><feColorMatrix in="shadowBlurOuter1" values="0 0 0 0 0   0 0 0 0 0   0 0 0 0 0  0 0 0 0.199473505 0"/></filter><path id="d" d="m12.8688213 11.684964h11.0851821v2.4875879h-11.0851821zm11.0851821 4.1441371h.0459966v6.5432774s-8.6473619 6.2650361-15.36286641-.5527973c0 0-3.67972848-3.7313818-2.3458269-9.1672219 0 0 1.05792194-6.77176691 9.10732801-7.60096286 0 0 4.9676334-.69099662 8.1873958 2.99431871l-1.9318574 1.88872411s-4.0936979-4.23811263-9.5672941-.92132883c0 0-4.46167074 2.48758787-2.6218065 8.75262397 0 0 2.0238507 5.4358401 8.3713823 4.3302455 0 0 2.1618405-.491529 3.265759-1.4437223v-2.3355686h-8.2333925v-2.4875879z"/><filter id="e" height="117.5%" width="119.4%" x="-9.7%" y="-6.2%"><feOffset dy=".5" in="SourceAlpha" result="shadowOffsetOuter1"/><feGaussianBlur in="shadowOffsetOuter1" result="shadowBlurOuter1" stdDeviation=".5"/><feColorMatrix in="shadowBlurOuter1" values="0 0 0 0 0   0 0 0 0 0   0 0 0 0 0  0 0 0 0.204257246 0"/></filter></defs><g fill="none" fill-rule="evenodd"><use fill="#000" filter="url(#c)" xlink:href="#b"/><use fill="#2d475b" xlink:href="#b"/><use fill="url(#a)" xlink:href="#b"/><circle cx="16" cy="15" r="14.5" stroke="#000" stroke-opacity=".097"/><g fill-rule="nonzero"><use fill="#000" filter="url(#e)" xlink:href="#d"/><use fill="#fff" fill-rule="evenodd" xlink:href="#d"/></g></g></svg>

<svg xmlns="http://www.w3.org/2000/svg" xmlns:xlink="http://www.w3.org/1999/xlink" width="32" height="32" viewBox="0 0 32 32">
  <defs>
    <linearGradient id="game-c" x1="50%" x2="50%" y1="0%" y2="100%">
      <stop offset="0%" stop-color="#FFF" stop-opacity=".5"/>
      <stop offset="100%" stop-opacity=".5"/>
    </linearGradient>
    <circle id="game-b" cx="16" cy="15" r="15"/>
    <filter id="game-a" width="111.7%" height="111.7%" x="-5.8%" y="-4.2%" filterUnits="objectBoundingBox">
      <feOffset dy=".5" in="SourceAlpha" result="shadowOffsetOuter1"/>
      <feGaussianBlur in="shadowOffsetOuter1" result="shadowBlurOuter1" stdDeviation=".5"/>
      <feComposite in="shadowBlurOuter1" in2="SourceAlpha" operator="out" result="shadowBlurOuter1"/>
      <feColorMatrix in="shadowBlurOuter1" values="0 0 0 0 0   0 0 0 0 0   0 0 0 0 0  0 0 0 0.199473505 0"/>
    </filter>
    <path id="game-e" d="M12.8688213,11.684964 L23.9540034,11.684964 L23.9540034,14.1725519 L12.8688213,14.1725519 L12.8688213,11.684964 Z M23.9540034,15.8291011 L24,15.8291011 L24,22.3723785 C24,22.3723785 15.3526381,28.6374146 8.63713359,21.8195812 C8.63713359,21.8195812 4.95740511,18.0881994 6.29130669,12.6523593 C6.29130669,12.6523593 7.34922863,5.88059239 15.3986347,5.05139644 C15.3986347,5.05139644 20.3662681,4.36039982 23.5860305,8.04571515 L21.6541731,9.93443926 C21.6541731,9.93443926 17.5604752,5.69632663 12.086879,9.01311043 C12.086879,9.01311043 7.62520826,11.5006983 9.4650725,17.7657344 C9.4650725,17.7657344 11.4889232,23.2015745 17.8364548,22.0959799 C17.8364548,22.0959799 19.9982953,21.6044509 21.1022138,20.6522576 L21.1022138,18.316689 L12.8688213,18.316689 L12.8688213,15.8291011 L23.9540034,15.8291011 Z"/>
    <filter id="game-d" width="119.4%" height="117.5%" x="-9.7%" y="-6.2%" filterUnits="objectBoundingBox">
      <feOffset dy=".5" in="SourceAlpha" result="shadowOffsetOuter1"/>
      <feGaussianBlur in="shadowOffsetOuter1" result="shadowBlurOuter1" stdDeviation=".5"/>
      <feColorMatrix in="shadowBlurOuter1" values="0 0 0 0 0   0 0 0 0 0   0 0 0 0 0  0 0 0 0.204257246 0"/>
    </filter>
  </defs>
  <g fill="none" fill-rule="evenodd">
    <use fill="#000" filter="url(#game-a)" xlink:href="#game-b"/>
    <use fill="#2D475B" xlink:href="#game-b"/>
    <use fill="url(#game-c)" style="mix-blend-mode:soft-light" xlink:href="#game-b"/>
    <circle cx="16" cy="15" r="14.5" stroke="#000" stroke-opacity=".097"/>
    <g fill-rule="nonzero">
      <use fill="#000" filter="url(#game-d)" xlink:href="#game-e"/>
      <use fill="#FFF" fill-rule="evenodd" xlink:href="#game-e"/>
    </g>
  </g>
</svg>
